icons/linear-ele-digital-news.svg

<svg xmlns="http://www.w3.org/2000/svg" width="32px" height="32px" viewBox="0 0 32 32" version="1.1">
    <title>linear-ele-digital-news</title>
    <g id="linear-ele-digital-news" stroke-width="1" fill-rule="evenodd">
        <path d="M17.0709112,4.99887029 C16.7125759,5.61809178 16.4348629,6.28980065 16.2521271,6.9996419 L8,7 C6.8954305,7 6,7.8954305 6,9 L6,25 C6,26.1045695 6.8954305,27 8,27 L24,27 C25.1045695,27 26,26.1045695 26,25 L26.0003581,16.7478729 C26.7102108,16.5651341 27.3819299,16.2874151 28.0011597,15.9290715 L28,25 C28,27.209139 26.209139,29 24,29 L8,29 C5.790861,29 4,27.209139 4,25 L4,9 C4,6.790861 5.790861,5 8,5 L17.0709112,4.99887029 Z M24,3 C27.3137085,3 30,5.6862915 30,9 C30,12.3137085 27.3137085,15 24,15 C20.6862915,15 18,12.3137085 18,9 C18,5.6862915 20.6862915,3 24,3 Z M24,5 C21.790861,5 20,6.790861 20,9 C20,11.209139 21.790861,13 24,13 C26.209139,13 28,11.209139 28,9 C28,6.790861 26.209139,5 24,5 Z" id="&#24418;&#29366;" fill-rule="nonzero" />
    </g>
</svg>

<svg xmlns="http://www.w3.org/2000/svg" viewBox="0 0 32 32"><path fill="currentColor" d="M17.07 4.999a7.95 7.95 0 0 0-.818 2L8 7a2 2 0 0 0-2 2v16a2 2 0 0 0 2 2h16a2 2 0 0 0 2-2v-8.252a7.95 7.95 0 0 0 2.001-.819L28 25a4 4 0 0 1-4 4H8a4 4 0 0 1-4-4V9a4 4 0 0 1 4-4zM24 3a6 6 0 1 1 0 12 6 6 0 0 1 0-12m0 2a4 4 0 1 0 0 8 4 4 0 0 0 0-8"/></svg>
